ui/StatusQ/src/assets/img/icons/linkPreviewThumbnails/status.svg

<svg fill="none" height="40" viewBox="0 0 40 40" width="40" xmlns="http://www.w3.org/2000/svg"><g clip-rule="evenodd" fill-rule="evenodd"><path d="m20 .00000001c-11.04581-.00032352-20 8.95373999-20 19.99969999 0 11.0459 8.95419 20 20 20 11.0458 0 20-8.9544 20-20 0-11.04564-8.9542-19.99969999-20-19.99969999z" fill="#fff"/><path d="m23.3735 19.8153c-2.397.1381-3.8993-.4203-6.2967-.2818-.5946.0334-1.1851.1196-1.7645.2575.3538-4.4335 3.4916-8.3119 7.7583-8.5584 2.6184-.1511 5.2355 1.4656 5.3775 4.0899.1396 2.5795-1.8271 4.3051-5.0742 4.4924zm-6.437 9.0686c-2.5084.1417-5.0152-1.3718-5.1513-3.8276-.1339-2.4141 1.7506-4.0291 4.8613-4.2045 2.2961-.1294 3.7354.3934 6.0316.2637.5693-.0312 1.1348-.1119 1.6903-.241-.3384 4.1491-3.3442 7.779-7.4319 8.0094zm3.0635-28.88357648c-11.04581-.00032352-20 8.95373648-20 19.99967648 0 11.0459 8.95419 20 20 20 11.0458 0 20-8.9544 20-20 0-11.04562-8.9542-20-20-20" fill="#4360df"/></g></svg>

<svg width="40" height="40" viewBox="0 0 40 40" fill="none" xmlns="http://www.w3.org/2000/svg">
<path fill-rule="evenodd" clip-rule="evenodd" d="M20 8.76657e-09C8.95419 -0.000323511 0 8.95374 0 19.9997C0 31.0456 8.95419 39.9997 20 39.9997C31.0458 39.9997 40 31.0453 40 19.9997C40 8.95406 31.0458 8.76657e-09 20 8.76657e-09Z" fill="white"/>
<path fill-rule="evenodd" clip-rule="evenodd" d="M23.3735 19.8153C20.9765 19.9534 19.4742 19.395 17.0768 19.5335C16.4822 19.5669 15.8917 19.6531 15.3123 19.791C15.6661 15.3575 18.8039 11.4791 23.0706 11.2326C25.689 11.0815 28.3061 12.6982 28.4481 15.3225C28.5877 17.902 26.621 19.6276 23.3739 19.8149L23.3735 19.8153ZM16.9365 28.8839C14.4281 29.0256 11.9213 27.5121 11.7852 25.0563C11.6513 22.6422 13.5358 21.0272 16.6465 20.8518C18.9426 20.7224 20.3819 21.2452 22.6781 21.1155C23.2474 21.0843 23.8129 21.0036 24.3684 20.8745C24.03 25.0236 21.0242 28.6535 16.9365 28.8839ZM20 0.000323516C8.95419 -4.18056e-09 0 8.95406 0 20C0 31.0459 8.95419 40 20 40C31.0458 40 40 31.0456 40 20C40 8.95438 31.0458 0 20 0" fill="#4360DF"/>
</svg>
